X: 6
P: No. VI.
M: 6/8
L: 1/8
K: Em
V: 1
{A}G2E EFE | D2D D>ED | G2E E>FE | G3 B2 |]
V: 2 clef=bass middle=d
z |\
e6 | d6 | e6 | e6 |\
e6 | d6 | e6 | e3- e2z |
g6 & G6 | g6 & G6 | g6 & G6 | g6 & G6 |\
g6 & G6 | g3- g2z & G3- HG2z | e6 e6 |
e6 | d6 | e6 | e6 |\
e6 | d6 | e6 | e3- e2 |]

